_site/images/features-page/icon-bill.svg

<svg fill="none" height="30" viewBox="0 0 30 30" width="30" xmlns="http://www.w3.org/2000/svg"><rect fill="#00a0b6" height="30" rx="7" width="30"/><path clip-rule="evenodd" d="m20.3971 15.0018h2.6995c.497 0 .8998.4029.8998.8998v5.3989c0 1.4909-1.2086 2.6995-2.6994 2.6995h-12.59753c-1.49087 0-2.69946-1.2086-2.69946-2.6995v-14.3971c-.00128-.32276.17039-.62147.44991-.78285.2784-.16073.62141-.16073.89982 0l2.69946 1.54769 2.6995-1.54769c.2784-.16073.6214-.16073.8998 0l2.6995 1.54769 2.6994-1.54769c.2784-.16073.6214-.16073.8998 0 .2796.16138.4512.46009.4499.78285zm-5.3993-1.35h-2.2496c-.2485 0-.4499.2014-.4499.4499s.2014.4499.4499.4499h.8998c1.1558-.0011 2.1243.8736 2.2405 2.0235.1161 1.1499-.6579 2.2007-1.7905 2.4307v.4948c0 .497-.4029.8999-.8999.8999-.4969 0-.8998-.4029-.8998-.8999v-.4499h-.8998c-.497 0-.8998-.4028-.8998-.8998 0-.4969.4028-.8998.8998-.8998h2.2495c.2485 0 .45-.2014.45-.4499s-.2015-.4499-.45-.4499h-.8998c-1.1557.0011-2.1243-.8736-2.2404-2.0235-.1162-1.1499.6579-2.2007 1.7905-2.4306v-.4949c0-.497.4029-.8999.8998-.8999.497 0 .8999.4029.8999.8999v.4499h.8998c.4969 0 .8998.4028.8998.8998s-.4029.8998-.8998.8998zm-6.29872 8.5486c-.49696 0-.89982-.4029-.89982-.8998v-12.84047l1.79964 1.02579c.28187.14723.6179.14723.8998 0l2.6995-1.54769 2.6994 1.54769c.2819.14723.618.14723.8999 0l1.7996-1.02579v12.84047c.0024.3069.0572.6112.162.8998zm12.59782 0c.497 0 .8998-.4028.8998-.8998v-4.4991h-1.7996v4.4991c0 .497.4029.8998.8998.8998z" fill="#fff" fill-rule="evenodd"/></svg>

<svg width="30" height="30" viewBox="0 0 30 30" fill="none" xmlns="http://www.w3.org/2000/svg">
<rect width="30" height="30" rx="7" fill="#00A0B6"/>
<path fill-rule="evenodd" clip-rule="evenodd" d="M20.3971 15.0018H23.0966C23.5936 15.0018 23.9964 15.4047 23.9964 15.9016V21.3005C23.9964 22.7914 22.7878 24 21.297 24H8.69947C7.2086 24 6.00001 22.7914 6.00001 21.3005V6.9034C5.99873 6.58064 6.1704 6.28193 6.44992 6.12055C6.72832 5.95982 7.07133 5.95982 7.34974 6.12055L10.0492 7.66824L12.7487 6.12055C13.0271 5.95982 13.3701 5.95982 13.6485 6.12055L16.348 7.66824L19.0474 6.12055C19.3258 5.95982 19.6688 5.95982 19.9472 6.12055C20.2268 6.28193 20.3984 6.58064 20.3971 6.9034V15.0018ZM14.9978 13.6518H12.7482C12.4997 13.6518 12.2983 13.8532 12.2983 14.1017C12.2983 14.3502 12.4997 14.5516 12.7482 14.5516H13.648C14.8038 14.5505 15.7723 15.4252 15.8885 16.5751C16.0046 17.725 15.2306 18.7758 14.098 19.0058V19.5006C14.098 19.9976 13.6951 20.4005 13.1981 20.4005C12.7012 20.4005 12.2983 19.9976 12.2983 19.5006V19.0507H11.3985C10.9015 19.0507 10.4987 18.6479 10.4987 18.1509C10.4987 17.654 10.9015 17.2511 11.3985 17.2511H13.648C13.8965 17.2511 14.098 17.0497 14.098 16.8012C14.098 16.5527 13.8965 16.3513 13.648 16.3513H12.7482C11.5925 16.3524 10.6239 15.4777 10.5078 14.3278C10.3916 13.1779 11.1657 12.1271 12.2983 11.8972V11.4023C12.2983 10.9053 12.7012 10.5024 13.1981 10.5024C13.6951 10.5024 14.098 10.9053 14.098 11.4023V11.8522H14.9978C15.4947 11.8522 15.8976 12.255 15.8976 12.752C15.8976 13.249 15.4947 13.6518 14.9978 13.6518ZM8.69908 22.2004C8.20212 22.2004 7.79926 21.7975 7.79926 21.3006V8.46013L9.5989 9.48592C9.88077 9.63315 10.2168 9.63315 10.4987 9.48592L13.1982 7.93823L15.8976 9.48592C16.1795 9.63315 16.5156 9.63315 16.7975 9.48592L18.5971 8.46013V21.3006C18.5995 21.6075 18.6543 21.9118 18.7591 22.2004H8.69908ZM21.2969 22.2004C21.7939 22.2004 22.1967 21.7976 22.1967 21.3006V16.8015H20.3971V21.3006C20.3971 21.7976 20.8 22.2004 21.2969 22.2004Z" fill="white"/>
</svg>
